public/icons/ruby.svg

<svg width="41" height="41" viewBox="0 0 41 41" fill="none" xmlns="http://www.w3.org/2000/svg">
<rect x="0.722656" y="0.117676" width="40" height="40" rx="4" fill="#141414"/>
<path opacity="0.3" d="M32.8523 19.1251L31.806 18.4769C31.7972 18.3748 31.7872 18.2731 31.7762 18.1718L32.6771 17.3329C32.7686 17.2475 32.8096 17.1212 32.7848 16.9992C32.7608 16.8765 32.6747 16.7754 32.5577 16.7323L31.4066 16.3033C31.3777 16.2036 31.3475 16.1047 31.3165 16.0054L32.0339 15.0091C32.107 14.9078 32.122 14.776 32.0744 14.6612C32.0267 14.546 31.9226 14.4636 31.8003 14.4433L30.5872 14.246C30.54 14.154 30.4909 14.0634 30.4413 13.9743L30.9514 12.8541C31.0036 12.7402 30.9928 12.6086 30.9232 12.5038C30.8539 12.3999 30.7364 12.3391 30.611 12.3439L29.3788 12.3868C29.3152 12.3072 29.2504 12.2283 29.1844 12.1508L29.468 10.952C29.4966 10.8302 29.4606 10.7018 29.3719 10.6136C29.284 10.5254 29.1562 10.4889 29.0335 10.5175L27.8347 10.8011C27.757 10.7354 27.6781 10.6703 27.5983 10.6067L27.6414 9.37449C27.6462 9.24984 27.5854 9.13139 27.4815 9.06227C27.3773 8.99268 27.2455 8.98219 27.1311 9.03391L26.0134 9.54394C25.923 9.49437 25.8325 9.44527 25.7417 9.39784L25.5438 8.18474C25.5238 8.06176 25.4414 7.95737 25.326 7.91065C25.2109 7.86275 25.0781 7.87824 24.9781 7.95117L23.9818 8.66855C23.8836 8.63733 23.785 8.6073 23.6863 8.5787L23.2573 7.42756C23.2137 7.3103 23.1126 7.22426 22.9904 7.19995C22.8679 7.17588 22.7425 7.21663 22.6567 7.30767L21.8178 8.20857C21.7165 8.19737 21.6145 8.18712 21.5127 8.17878L20.8644 7.13012C20.7989 7.02406 20.6828 6.95947 20.557 6.95947C20.4312 6.95947 20.3163 7.02406 20.2519 7.13012L19.6037 8.17878C19.5017 8.18712 19.3997 8.19737 19.2986 8.20857L18.4597 7.30767C18.3746 7.21663 18.2483 7.17588 18.126 7.19995C18.0033 7.2245 17.9022 7.3103 17.8591 7.42756L17.4301 8.5787C17.3305 8.6073 17.2318 8.63757 17.1346 8.66855L16.1383 7.95117C16.037 7.878 15.905 7.86251 15.7904 7.91065C15.6752 7.95832 15.5925 8.06271 15.5725 8.18474L15.3747 9.39784C15.2832 9.44527 15.1926 9.49413 15.103 9.54394L13.9852 9.03391C13.8716 8.98196 13.7398 8.99268 13.6349 9.06227C13.531 9.13139 13.4702 9.24984 13.475 9.37449L13.5179 10.6067C13.4383 10.6703 13.3594 10.7354 13.2814 10.8011L12.0826 10.5175C11.9609 10.4892 11.8324 10.5254 11.7442 10.6136C11.6555 10.702 11.6196 10.8295 11.6482 10.952L11.9294 12.1508C11.8638 12.2285 11.799 12.3072 11.7354 12.3868L10.5032 12.3439C10.379 12.3403 10.2601 12.3999 10.191 12.5038C10.1214 12.6072 10.1109 12.7397 10.1626 12.8541L10.6727 13.9743C10.6231 14.0641 10.574 14.1547 10.5266 14.246L9.31346 14.4433C9.19024 14.4633 9.08633 14.5458 9.03938 14.6612C8.99171 14.7768 9.00721 14.909 9.0799 15.0091L9.79728 16.0054C9.76605 16.1038 9.73579 16.2027 9.70719 16.3033L8.55604 16.7323C8.43926 16.7759 8.35322 16.8769 8.32891 16.9992C8.3046 17.1217 8.34536 17.2471 8.43664 17.3329L9.33753 18.1718C9.32633 18.2731 9.31632 18.3751 9.30774 18.4769L8.26147 19.1251C8.15541 19.1907 8.09082 19.3065 8.09082 19.4326C8.09082 19.5586 8.15541 19.6733 8.26147 19.7376L9.30774 20.3859C9.31632 20.4879 9.32633 20.5897 9.33753 20.691L8.43664 21.5299C8.34536 21.615 8.3046 21.7413 8.32891 21.8635C8.35322 21.9863 8.43926 22.0871 8.55604 22.1305L9.70719 22.5595C9.73579 22.6591 9.76605 22.758 9.79728 22.8574L9.0799 23.8536C9.00697 23.9551 8.99148 24.0869 9.03938 24.2016C9.08728 24.3172 9.19144 24.3996 9.31585 24.4194L10.529 24.6168C10.5764 24.7088 10.625 24.7993 10.6751 24.8885L10.165 26.0062C10.1131 26.1199 10.1238 26.2517 10.1934 26.3566C10.263 26.4607 10.3814 26.5215 10.5056 26.5165L11.7354 26.4734C11.7995 26.5534 11.8641 26.6319 11.9299 26.7098L11.6486 27.9086C11.62 28.0301 11.656 28.1565 11.7447 28.2446C11.8326 28.3335 11.9606 28.3691 12.0831 28.3405L13.2819 28.0592C13.3599 28.1255 13.4387 28.1898 13.5183 28.2532L13.4754 29.4854C13.4707 29.61 13.5315 29.7285 13.6354 29.7976C13.7388 29.867 13.8713 29.8775 13.9857 29.8255L15.1035 29.3155C15.1936 29.3655 15.2841 29.4141 15.3752 29.4616L15.573 30.6747C15.593 30.7981 15.6755 30.9025 15.7908 30.9511C15.906 30.999 16.0387 30.9836 16.1388 30.9109L17.135 30.1935C17.2335 30.2247 17.3324 30.2552 17.4329 30.2838L17.8619 31.4349C17.9056 31.5517 18.0066 31.6382 18.1289 31.6621C18.2514 31.6869 18.3767 31.6459 18.4625 31.5544L19.3015 30.6535C19.4028 30.6651 19.5048 30.6749 19.6065 30.684L20.2548 31.7302C20.3201 31.8358 20.4362 31.9009 20.5599 31.9009C20.6835 31.9009 20.8006 31.8361 20.8673 31.7302L21.5156 30.684C21.6176 30.6749 21.7193 30.6651 21.8206 30.6535L22.6596 31.5544C22.7446 31.6459 22.871 31.6869 22.9932 31.6621C23.116 31.638 23.217 31.5517 23.2602 31.4349L23.6892 30.2838C23.7888 30.2552 23.8877 30.2247 23.9871 30.1935L24.9833 30.9109C25.0846 30.9836 25.2166 30.999 25.3313 30.9511C25.4466 30.9037 25.5291 30.7991 25.5491 30.6747L25.7469 29.4616C25.8384 29.4141 25.929 29.3648 26.0186 29.3155L27.1364 29.8255C27.2501 29.8775 27.3819 29.867 27.4867 29.7976C27.5906 29.728 27.6512 29.61 27.6466 29.4854L27.6038 28.2532C27.6834 28.1896 27.7622 28.1255 27.8399 28.0592L29.0387 28.3405C29.1605 28.3691 29.289 28.3335 29.3772 28.2446C29.4658 28.1562 29.5018 28.0292 29.4732 27.9086L29.192 26.7098C29.2578 26.6319 29.3226 26.5534 29.386 26.4734L30.6182 26.5165C30.7423 26.5215 30.8613 26.4607 30.9304 26.3566C31 26.2527 31.0107 26.1204 30.9585 26.0062L30.4485 24.8885C30.4983 24.7981 30.5471 24.7076 30.5943 24.6168L31.8074 24.4194C31.9309 24.3996 32.0348 24.3172 32.0815 24.2016C32.1292 24.0865 32.1142 23.9537 32.041 23.8536L31.3236 22.8574C31.3546 22.759 31.3849 22.6601 31.4137 22.5595L32.5649 22.1305C32.6819 22.0866 32.7682 21.9858 32.792 21.8635C32.8168 21.741 32.7758 21.6157 32.6843 21.5299L31.7834 20.691C31.7943 20.5897 31.8043 20.4877 31.8132 20.3859L32.8594 19.7376C32.9655 19.6723 33.0301 19.5563 33.0301 19.4326C33.0301 19.3089 32.9657 19.1918 32.8597 19.1251H32.8523ZM25.8453 27.8242C25.4449 27.7379 25.1923 27.3428 25.2781 26.9424C25.3637 26.542 25.7572 26.287 26.1576 26.3728C26.558 26.4583 26.813 26.8542 26.7272 27.2546C26.6414 27.655 26.2481 27.91 25.8477 27.8242H25.8453ZM25.4902 25.4171C25.1256 25.3389 24.7657 25.571 24.6894 25.9366L24.3176 27.6717C23.1713 28.1913 21.8866 28.482 20.552 28.482C19.1792 28.482 17.8827 28.1793 16.7149 27.6359L16.3431 25.9009C16.2649 25.5362 15.9069 25.3027 15.5423 25.3813L14.0098 25.7102C13.7262 25.4171 13.4616 25.1049 13.2185 24.776H20.6783C20.7627 24.776 20.8189 24.7607 20.8189 24.684V22.0385C20.8189 21.9617 20.7627 21.9465 20.6783 21.9465H18.4976V20.2758H20.8547C21.0699 20.2758 22.0058 20.3373 22.3037 21.5342C22.3974 21.9012 22.604 23.0976 22.7446 23.4813C22.8848 23.9103 23.4549 24.7683 24.0626 24.7683H27.7806C27.8228 24.7683 27.8678 24.7636 27.9153 24.755C27.6579 25.1053 27.3742 25.4366 27.0716 25.7464L25.5033 25.4104L25.4902 25.4171ZM15.1705 27.7885C14.7701 27.8748 14.3768 27.6197 14.291 27.2189C14.2055 26.8185 14.4598 26.4228 14.8606 26.337C15.261 26.2515 15.6543 26.5065 15.7401 26.9066C15.8256 27.307 15.5711 27.7027 15.1705 27.7885ZM12.3343 16.3247C12.5002 16.6989 12.3315 17.1374 11.9578 17.3043C11.5836 17.4704 11.1474 17.3014 10.9806 16.9277C10.8138 16.554 10.9835 16.115 11.3572 15.9482C11.7313 15.7823 12.1675 15.951 12.3343 16.3247ZM11.4644 18.3839L13.0612 17.6737C13.402 17.5223 13.557 17.1231 13.4044 16.7823L13.0755 16.0387H14.3673V21.854H11.7695C11.5433 21.058 11.4215 20.2191 11.4215 19.3515C11.4215 19.0203 11.4394 18.6937 11.4737 18.372L11.4644 18.3839ZM18.4714 17.8191V16.1031H21.5458C21.7048 16.1031 22.6684 16.2868 22.6684 17.0063C22.6684 17.6046 21.9296 17.8191 21.3218 17.8191H18.4618H18.4714ZM29.6491 19.3634C29.6491 19.5913 29.6408 19.8163 29.6241 20.0403H28.6874C28.5938 20.0403 28.5561 20.1018 28.5561 20.1936V20.6226C28.5561 21.6331 27.9865 21.8547 27.486 21.9095C27.0093 21.9632 26.4826 21.7103 26.4183 21.4186C26.1371 19.8384 25.6699 19.5024 24.9311 18.9161C25.8487 18.3346 26.802 17.4742 26.802 16.3183C26.802 15.0766 25.9512 14.2948 25.372 13.9111C24.5569 13.3749 23.656 13.2676 23.4129 13.2676H13.7367C15.0499 11.8043 16.835 10.7652 18.837 10.3838L19.9786 11.5802C20.236 11.8496 20.6626 11.8615 20.9343 11.6022L22.2117 10.3819C24.881 10.88 27.1452 12.5436 28.456 14.8387L27.5813 16.8121C27.4305 17.1529 27.5844 17.5533 27.9245 17.7035L29.6072 18.4518C29.6362 18.7497 29.6515 19.0524 29.6515 19.3575L29.6491 19.3634ZM19.9728 9.37735C20.2684 9.09373 20.7379 9.10565 21.0191 9.40142C21.3004 9.69695 21.2908 10.1665 20.9946 10.4501C20.699 10.7337 20.2295 10.7218 19.9483 10.4258C19.6671 10.1302 19.6766 9.66072 19.9728 9.37711V9.37735ZM28.6481 16.3605C28.8138 15.9863 29.2511 15.8171 29.6253 15.9839C29.9995 16.1498 30.1687 16.5893 30.0018 16.9634C29.8362 17.3376 29.3989 17.5068 29.0247 17.34C28.6505 17.1741 28.4813 16.7346 28.6481 16.3605Z" fill="white"/>
</svg>

<svg xmlns="http://www.w3.org/2000/svg" width="41" height="41" fill="none"><rect width="40" height="40" x=".723" y=".118" fill="#141414" rx="4"/><path fill="#fff" d="m32.852 19.125-1.046-.648a13.816 13.816 0 0 0-.03-.305l.901-.84a.359.359 0 0 0-.12-.6l-1.15-.429-.09-.298.717-.996a.36.36 0 0 0-.234-.566l-1.213-.197a9.094 9.094 0 0 0-.146-.272l.51-1.12a.36.36 0 0 0-.34-.51l-1.232.043a9.777 9.777 0 0 0-.195-.236l.284-1.199a.36.36 0 0 0-.434-.434l-1.2.283c-.077-.066-.156-.13-.236-.194l.043-1.233a.359.359 0 0 0-.51-.34l-1.118.51c-.09-.05-.18-.099-.271-.146l-.198-1.213a.359.359 0 0 0-.566-.234l-.996.718a11.99 11.99 0 0 0-.296-.09l-.429-1.151a.36.36 0 0 0-.6-.12l-.84.9a10.82 10.82 0 0 0-.304-.03l-.649-1.048a.36.36 0 0 0-.612 0l-.648 1.049c-.102.008-.204.018-.305.03l-.84-.901a.361.361 0 0 0-.6.12l-.429 1.15-.295.09-.997-.717a.361.361 0 0 0-.566.234l-.197 1.213c-.092.047-.182.096-.272.146l-1.118-.51a.36.36 0 0 0-.51.34l.043 1.233c-.08.063-.159.128-.237.194l-1.198-.284a.36.36 0 0 0-.434.434l.28 1.2c-.065.078-.13.156-.194.236l-1.232-.043a.362.362 0 0 0-.34.51l.51 1.12c-.05.09-.099.18-.146.272l-1.214.197a.36.36 0 0 0-.234.566l.718.996c-.031.099-.061.198-.09.298l-1.151.43a.36.36 0 0 0-.12.6l.902.839c-.012.101-.022.203-.03.305l-1.047.648a.36.36 0 0 0 0 .613l1.047.648c.008.102.018.204.03.305l-.901.839a.36.36 0 0 0 .119.6l1.151.43c.029.1.059.198.09.297l-.717.997a.36.36 0 0 0 .236.565l1.213.198c.047.092.096.182.146.271l-.51 1.118a.361.361 0 0 0 .34.51l1.23-.043.195.237-.281 1.199a.36.36 0 0 0 .434.432l1.199-.282c.078.066.157.13.236.194l-.043 1.232a.36.36 0 0 0 .51.34l1.119-.51c.09.05.18.1.271.147l.198 1.213a.36.36 0 0 0 .566.236l.996-.718c.098.032.197.062.298.09l.429 1.152a.36.36 0 0 0 .6.12l.84-.901c.1.011.203.02.305.03l.648 1.046a.36.36 0 0 0 .612 0l.649-1.046.305-.03.839.9a.358.358 0 0 0 .6-.12l.43-1.15.297-.09.996.717a.36.36 0 0 0 .566-.236l.198-1.213.272-.146 1.117.51a.361.361 0 0 0 .51-.34l-.042-1.233c.08-.063.158-.128.236-.194l1.199.281a.36.36 0 0 0 .434-.431l-.281-1.2a9.78 9.78 0 0 0 .194-.236l1.232.044a.36.36 0 0 0 .34-.51l-.51-1.118c.05-.09.1-.181.146-.272l1.213-.198a.359.359 0 0 0 .234-.566l-.717-.996.09-.297 1.15-.43a.36.36 0 0 0 .12-.6l-.9-.839.03-.305 1.045-.648a.359.359 0 0 0 0-.613h-.007Zm-7.007 8.7a.742.742 0 1 1 .003 0h-.003Zm-.355-2.408a.673.673 0 0 0-.8.52l-.372 1.735a9.132 9.132 0 0 1-7.603-.036l-.372-1.735a.675.675 0 0 0-.8-.52l-1.533.33a9.255 9.255 0 0 1-.791-.935h7.46c.084 0 .14-.015.14-.092v-2.646c0-.076-.056-.091-.14-.091h-2.181v-1.671h2.357c.215 0 1.15.061 1.449 1.258.093.367.3 1.564.44 1.947.14.43.71 1.287 1.319 1.287h3.718a.76.76 0 0 0 .134-.013c-.257.35-.54.682-.843.991l-1.569-.336-.013.007Zm-10.32 2.371a.743.743 0 0 1-.31-1.451.741.741 0 1 1 .31 1.451Zm-2.836-11.463a.74.74 0 1 1-1.353.605.74.74 0 0 1 1.353-.605Zm-.87 2.059 1.597-.71a.675.675 0 0 0 .343-.892l-.329-.743h1.292v5.815H11.77a9.14 9.14 0 0 1-.295-3.482l-.01.012Zm7.007-.565v-1.716h3.075c.159 0 1.122.184 1.122.903 0 .599-.738.813-1.346.813h-2.86.01Zm11.178 1.544c0 .228-.008.453-.025.677h-.937c-.093 0-.13.062-.13.154v.429c0 1.01-.57 1.232-1.071 1.287-.477.053-1.003-.2-1.068-.491-.28-1.58-.748-1.917-1.487-2.503.918-.581 1.871-1.442 1.871-2.598 0-1.241-.85-2.023-1.43-2.407-.815-.536-1.716-.643-1.96-.643h-9.675a9.174 9.174 0 0 1 5.1-2.884l1.142 1.196c.257.27.684.281.955.022l1.278-1.22a9.134 9.134 0 0 1 6.244 4.457l-.875 1.973c-.15.34.003.741.343.891l1.683.749c.03.298.044.6.044.905l-.002.006Zm-9.676-9.986a.739.739 0 0 1 1.046.024.743.743 0 0 1-.024 1.05.738.738 0 0 1-1.047-.025.743.743 0 0 1 .025-1.049Zm8.675 6.983a.742.742 0 1 1 1.352.603.742.742 0 0 1-1.352-.603Z" opacity=".3"/></svg>
